X:1
T:Captain Wyke
O:No 83 Wm Clarke MS  Feltwell, Norfolk
N:Variant of Captain White (as in Raven)
N:Rest, sign and fine added.
I:abc2nwc
M:6/8
L:1/8
K:G
z |\
GBd g2b | agf e2g | d2g B2d | cBc A2B |\
GBd g2b | agf e2g | d2g B2d | AGA G2 :|
|: b |\
a^ga f2a | aga c'2b | a2g f2e | d2^c d2b |\
a^ga f2b | afa d'2b | bag f2e | d2c  BAB |
G2b  bab | g2d d2B  | G2b bab | c'2a a2b |\
G2b  bab | g2d d2B  | efg abc'| bag  fed :|
